X: 38400
T: Star Of Munster, The
R: reel
M: 4/4
K: Adorian
|:c2 Ac BAGB|AGEF GEDG|EAAG ABcd|e2 afge d2|
c2 Ac BAGB|AGEF GEDG|EAAG cded|1 e2 dB A3B:|2 e2 dB A3g||
|:a3b ageg|agbg agef|g3a gede|g2 af gedg|
a3b ageg|agbg agef|g4 a4|b3 a ge d2:|

